assets/img/braze_icons/image-03.svg

<svg fill="none" height="24" viewBox="0 0 24 24" width="24" xmlns="http://www.w3.org/2000/svg"><g clip-rule="evenodd" fill="#801ed7" fill-rule="evenodd"><path d="m8 6c-1.65685 0-3 1.34315-3 3 0 1.6569 1.34315 3 3 3s3-1.3431 3-3c0-1.65685-1.34315-3-3-3z"/><path d="m17.2413 2h-10.4826c-.80496-.00001-1.46933-.00002-2.01052.04419-.5621.04593-1.07881.14449-1.56414.39179-.75265.38349-1.36457.99541-1.74806 1.74806-.2473.48533-.34586 1.00204-.39179 1.56414-.044212.54119-.044202 1.20554-.04419 2.01051v8.48261c-.000012.805-.000022 1.4693.04419 2.0105.04593.5621.14449 1.0788.39179 1.5642.38349.7526.99541 1.3645 1.74806 1.748.48533.2473 1.00204.3459 1.56414.3918.11869.0097.2433.0173.37402.0232.00756.0007.01486.0014.02188.002.21397.0189.47973.0189.75011.0189l.50631-.0001c.11617.0002.23554.0002.35818.0002h10.48262c.1217 0 .2402 0 .3555-.0001h.5091c.2704 0 .5362 0 .7501-.0189.0071-.0007.0144-.0013.022-.002.1307-.0059.2552-.0135.3738-.0232.5621-.0459 1.0788-.1445 1.5642-.3918.7526-.3835 1.3645-.9954 1.748-1.748.2473-.4854.3459-1.0021.3918-1.5642.0442-.5412.0442-1.2055.0442-2.0105v-1.2405-.0019-7.24022c0-.80496 0-1.46931-.0442-2.0105-.0459-.5621-.1445-1.07881-.3918-1.56414-.3835-.75265-.9954-1.36457-1.748-1.74806-.4854-.2473-1.0021-.34586-1.5642-.39179-.5412-.04421-1.2055-.0442-2.0105-.04419zm3.7587 10.5856v-4.7856c0-.85658-.0008-1.43887-.0376-1.88896-.0358-.43842-.1007-.66262-.1804-.81902-.1917-.37632-.4977-.68229-.874-.87403-.1564-.07969-.3806-.14462-.819-.18044-.4501-.03677-1.0324-.03755-1.889-.03755h-10.4c-.85658 0-1.43887.00078-1.88896.03755-.43842.03582-.66262.10075-.81902.18044-.37632.19174-.68229.49771-.87403.87403-.07969.1564-.14462.3806-.18044.81902-.03677.45009-.03755 1.03238-.03755 1.88896v8.4c0 .8566.00078 1.4389.03755 1.889.03582.4384.10075.6626.18044.819.16825.3302.42444.6062.73894.7985.05828-.0881.11572-.1585.15832-.2094.13788-.1647.32581-.3525.51701-.5437l5.55184-5.5518c.1785-.1785.3523-.3523.5115-.4875.1748-.1484.3967-.308.6864-.4022.4017-.1305.8344-.1305 1.2361 0 .2897.0942.5116.2538.6864.4022.1593.1351.333.309.5115.4874l.184.1841 2.1841-2.184c.1784-.1785.3522-.3523.5114-.4875.1749-.1484.3967-.308.6865-.4022.4017-.1305.8343-.1305 1.236 0 .2897.0942.5116.2538.6865.4022.1592.1352.333.309.5114.4875z"/></g></svg>

<svg width="24" height="24" viewBox="0 0 24 24" fill="none" xmlns="http://www.w3.org/2000/svg">
<path fill-rule="evenodd" clip-rule="evenodd" d="M8 6C6.34315 6 5 7.34315 5 9C5 10.6569 6.34315 12 8 12C9.65685 12 11 10.6569 11 9C11 7.34315 9.65685 6 8 6Z" fill="#801ED7"/>
<path fill-rule="evenodd" clip-rule="evenodd" d="M17.2413 2H6.7587C5.95374 1.99999 5.28937 1.99998 4.74818 2.04419C4.18608 2.09012 3.66937 2.18868 3.18404 2.43598C2.43139 2.81947 1.81947 3.43139 1.43598 4.18404C1.18868 4.66937 1.09012 5.18608 1.04419 5.74818C0.999978 6.28937 0.999988 6.95372 1 7.75869V16.2413C0.999988 17.0463 0.999978 17.7106 1.04419 18.2518C1.09012 18.8139 1.18868 19.3306 1.43598 19.816C1.81947 20.5686 2.43139 21.1805 3.18404 21.564C3.66937 21.8113 4.18608 21.9099 4.74818 21.9558C4.86687 21.9655 4.99148 21.9731 5.1222 21.979C5.12976 21.9797 5.13706 21.9804 5.14408 21.981C5.35805 21.9999 5.62381 21.9999 5.89419 21.9999L6.4005 21.9998C6.51667 22 6.63604 22 6.75868 22H17.2413C17.363 22 17.4815 22 17.5968 21.9999H18.1059C18.3763 21.9999 18.6421 21.9999 18.856 21.981C18.8631 21.9803 18.8704 21.9797 18.878 21.979C19.0087 21.9731 19.1332 21.9655 19.2518 21.9558C19.8139 21.9099 20.3306 21.8113 20.816 21.564C21.5686 21.1805 22.1805 20.5686 22.564 19.816C22.8113 19.3306 22.9099 18.8139 22.9558 18.2518C23 17.7106 23 17.0463 23 16.2413V15.0008V14.9989V7.75868C23 6.95372 23 6.28937 22.9558 5.74818C22.9099 5.18608 22.8113 4.66937 22.564 4.18404C22.1805 3.43139 21.5686 2.81947 20.816 2.43598C20.3306 2.18868 19.8139 2.09012 19.2518 2.04419C18.7106 1.99998 18.0463 1.99999 17.2413 2ZM21 12.5856V7.8C21 6.94342 20.9992 6.36113 20.9624 5.91104C20.9266 5.47262 20.8617 5.24842 20.782 5.09202C20.5903 4.7157 20.2843 4.40973 19.908 4.21799C19.7516 4.1383 19.5274 4.07337 19.089 4.03755C18.6389 4.00078 18.0566 4 17.2 4H6.8C5.94342 4 5.36113 4.00078 4.91104 4.03755C4.47262 4.07337 4.24842 4.1383 4.09202 4.21799C3.7157 4.40973 3.40973 4.7157 3.21799 5.09202C3.1383 5.24842 3.07337 5.47262 3.03755 5.91104C3.00078 6.36113 3 6.94342 3 7.8V16.2C3 17.0566 3.00078 17.6389 3.03755 18.089C3.07337 18.5274 3.1383 18.7516 3.21799 18.908C3.38624 19.2382 3.64243 19.5142 3.95693 19.7065C4.01521 19.6184 4.07265 19.548 4.11525 19.4971C4.25313 19.3324 4.44106 19.1446 4.63226 18.9534L10.1841 13.4016C10.3626 13.2231 10.5364 13.0493 10.6956 12.9141C10.8704 12.7657 11.0923 12.6061 11.382 12.5119C11.7837 12.3814 12.2164 12.3814 12.6181 12.5119C12.9078 12.6061 13.1297 12.7657 13.3045 12.9141C13.4638 13.0492 13.6375 13.2231 13.816 13.4015L14 13.5856L16.1841 11.4016C16.3625 11.2231 16.5363 11.0493 16.6955 10.9141C16.8704 10.7657 17.0922 10.6061 17.382 10.5119C17.7837 10.3814 18.2163 10.3814 18.618 10.5119C18.9077 10.6061 19.1296 10.7657 19.3045 10.9141C19.4637 11.0493 19.6375 11.2231 19.8159 11.4016L21 12.5856Z" fill="#801ED7"/>
</svg>
